src/assets/img/nav-img-gift.svg

<svg id="gift" width="30" height="30" viewBox="0 0 30 30" fill="none" xmlns="http://www.w3.org/2000/svg">
<path d="M27.3633 7.03125H25.5445C26.0975 6.29625 26.4258 5.38307 26.4258 4.39453C26.4258 1.97139 24.4544 0 22.0312 0C20.3827 0 18.8869 0.909844 18.1277 2.37439C17.7926 3.02086 17.4153 3.72615 16.9688 4.40092C16.4854 3.85828 15.7821 3.51562 15 3.51562C14.2179 3.51562 13.5146 3.85828 13.0312 4.40092C12.5847 3.72615 12.2073 3.02086 11.8723 2.37439C11.1131 0.909844 9.61734 0 7.96875 0C5.54561 0 3.57422 1.97139 3.57422 4.39453C3.57422 5.38307 3.90252 6.29625 4.45553 7.03125H2.63672C1.18283 7.03125 0 8.21408 0 9.66797V11.4258C0 12.5716 0.734707 13.5492 1.75781 13.9119V27.3633C1.75781 28.8206 2.99391 30 4.45312 30H25.5469C27.0039 30 28.2422 28.8225 28.2422 27.3633V13.9119C29.2653 13.5492 30 12.5717 30 11.4258V9.66797C30 8.21408 28.8172 7.03125 27.3633 7.03125ZM17.6159 6.4776C18.5 5.41734 19.147 4.22783 19.6884 3.1834C20.1441 2.30408 21.0419 1.75781 22.0312 1.75781C23.4851 1.75781 24.668 2.94064 24.668 4.39453C24.668 5.84842 23.4851 7.03125 22.0312 7.03125H21.2286C21.802 6.4984 22.2783 5.8657 22.6318 5.15871L22.8174 4.78758C23.0344 4.3534 22.8584 3.82547 22.4243 3.60844C21.99 3.39129 21.4621 3.56736 21.2451 4.00154L21.0596 4.37268C20.3529 5.78602 19.0307 6.73729 17.5052 6.97336C17.5575 6.81416 17.5948 6.6484 17.6159 6.4776ZM14.1274 6.05121C14.1778 5.6141 14.5496 5.27344 15 5.27344C15.4504 5.27344 15.8222 5.6141 15.8726 6.05121C15.866 6.11543 15.8666 6.18006 15.8741 6.2441C15.828 6.68578 15.4537 7.03125 15 7.03125C14.5463 7.03125 14.172 6.68578 14.126 6.2441C14.1335 6.18006 14.134 6.11549 14.1274 6.05121ZM7.96875 1.75781C8.95811 1.75781 9.85588 2.30408 10.3116 3.1834C10.853 4.22783 11.5 5.41734 12.384 6.47754C12.4051 6.64834 12.4425 6.8141 12.4948 6.9733C10.9693 6.73723 9.64705 5.78602 8.94041 4.37268L8.75484 4.00154C8.53769 3.56736 8.00982 3.39135 7.57564 3.60844C7.14152 3.82553 6.96551 4.35346 7.18254 4.78758L7.36816 5.15877C7.7216 5.8657 8.19797 6.4984 8.77131 7.03125H7.96875C6.51486 7.03125 5.33203 5.84842 5.33203 4.39453C5.33203 2.94064 6.51486 1.75781 7.96875 1.75781ZM10.6055 28.2422H4.45312C3.95373 28.2422 3.51562 27.8315 3.51562 27.3633V14.0625H10.6055V28.2422ZM10.6055 12.3047H2.63672C2.15209 12.3047 1.75781 11.9104 1.75781 11.4258V9.66797C1.75781 9.18334 2.15209 8.78906 2.63672 8.78906C2.99918 8.78906 10.1937 8.78906 10.6055 8.78906V12.3047ZM17.6367 28.2422H15.8789V27.3633C15.8789 26.8779 15.4854 26.4844 15 26.4844C14.5146 26.4844 14.1211 26.8779 14.1211 27.3633V28.2422H12.3633V8.78906H14.1211V9.66797C14.1211 10.1534 14.5146 10.5469 15 10.5469C15.4854 10.5469 15.8789 10.1534 15.8789 9.66797V8.78906H17.6367V28.2422ZM26.4844 27.3633C26.4844 27.8315 26.0463 28.2422 25.5469 28.2422H19.3945V14.0625H26.4844V27.3633ZM28.2422 11.4258C28.2422 11.9104 27.8479 12.3047 27.3633 12.3047H19.3945V8.78906C19.8063 8.78906 27.0009 8.78906 27.3633 8.78906C27.8479 8.78906 28.2422 9.18334 28.2422 9.66797V11.4258Z" fill="#252525"/>
<path d="M6.97884 26.311L6.74603 26.1943C6.60644 26.125 3.33301 24.4604 3.33301 22.0828C3.33301 20.9339 4.26738 19.9995 5.41634 19.9995C6.07467 19.9995 6.62311 20.4016 6.97884 20.7558C7.33457 20.4016 7.88301 19.9995 8.54134 19.9995C9.6903 19.9995 10.6247 20.9339 10.6247 22.0828C10.6247 24.4604 7.35124 26.125 7.21165 26.1948L6.97884 26.311Z" fill="#252525"/>
</svg>

<svg xmlns="http://www.w3.org/2000/svg" width="30" height="30" fill="none"><path fill="#252525" d="M27.36 7.03h-1.82a4.4 4.4 0 1 0-7.42-4.66c-.33.65-.7 1.36-1.15 2.03a2.63 2.63 0 0 0-3.94 0c-.45-.67-.82-1.38-1.16-2.03a4.38 4.38 0 0 0-8.3 2.02c0 1 .33 1.9.89 2.64H2.64A2.64 2.64 0 0 0 0 9.67v1.76c0 1.14.73 2.12 1.76 2.48v13.45A2.68 2.68 0 0 0 4.46 30h21.09c1.45 0 2.7-1.18 2.7-2.64V13.91A2.64 2.64 0 0 0 30 11.43V9.67a2.64 2.64 0 0 0-2.64-2.64Zm-9.74-.55a17.95 17.95 0 0 0 2.07-3.3 2.63 2.63 0 0 1 4.98 1.21 2.64 2.64 0 0 1-2.64 2.64h-.8a6.56 6.56 0 0 0 1.4-1.87l.19-.37A.88.88 0 0 0 21.25 4l-.19.37a4.78 4.78 0 0 1-3.55 2.6c.05-.16.08-.32.1-.5Zm-3.5-.43a.88.88 0 0 1 1.75 0v.2a.88.88 0 0 1-1.74 0v-.2Zm-6.15-4.3c.99 0 1.89.55 2.34 1.43a17.96 17.96 0 0 0 2.07 3.3c.03.17.06.33.11.5a4.78 4.78 0 0 1-3.55-2.6L8.75 4a.88.88 0 0 0-1.57.79l.19.37c.35.7.83 1.34 1.4 1.87h-.8a2.64 2.64 0 0 1 0-5.27Zm2.64 26.5H4.45c-.5 0-.93-.42-.93-.89v-13.3h7.09v14.18Zm0-15.95H2.64a.88.88 0 0 1-.88-.87V9.67c0-.49.4-.88.88-.88h7.97v3.51Zm7.03 15.94h-1.76v-.88a.88.88 0 0 0-1.76 0v.88h-1.76V8.8h1.76v.88a.88.88 0 1 0 1.76 0v-.88h1.76v19.45Zm8.84-.88c0 .47-.43.88-.93.88h-6.16V14.06h7.1v13.3Zm1.76-15.93c0 .48-.4.87-.88.87H19.4V8.8h7.97c.49 0 .88.4.88.88v1.76Z"/><path fill="#252525" d="m6.98 26.31-.23-.12c-.14-.07-3.42-1.73-3.42-4.1 0-1.16.94-2.09 2.09-2.09.65 0 1.2.4 1.56.76.35-.36.9-.76 1.56-.76 1.15 0 2.08.93 2.08 2.08 0 2.38-3.27 4.05-3.4 4.11l-.24.12Z"/></svg>
